src/assets/images/iherb.svg

<svg width="1460" height="530" viewBox="0 0 1460 530" xmlns="http://www.w3.org/2000/svg" xmlns:xlink="http://www.w3.org/1999/xlink">
    <path id="Path" fill="#458500" fill-rule="evenodd" stroke="none" d="M 1298.753906 494.580078 C 1273.540039 494.488678 1248.178955 487.150757 1226.199219 472.300781 C 1216.599243 465.800781 1210.800415 458.599182 1201.900391 475.199219 C 1192.400391 492.89917 1172.800049 496.799988 1153.5 493 C 1135.599976 489.5 1123.500366 477.899994 1119.400391 460 C 1117.000366 449.299988 1116.300781 437.900391 1116.300781 426.900391 C 1116.100708 322.300476 1116.099243 217.699554 1116.199219 113.099609 C 1116.199219 104.299622 1116.200684 95.500793 1117.300781 86.800781 C 1121.000732 58.300812 1139.5 42.599609 1167.5 43.599609 C 1193.300049 44.499634 1211.400391 61.900848 1212.400391 89.800781 C 1213.700317 120.700775 1212.800781 151.700409 1212.800781 187.400391 C 1250.900757 158.200409 1289.599243 152.499207 1330.199219 160.699219 C 1388.599243 172.499207 1426.099243 214.899719 1435.699219 284.599609 C 1444.199219 346.299561 1438.199951 406.500854 1392.5 454.800781 C 1367.582886 481.221069 1333.306274 494.705353 1298.753906 494.580078 Z M 1277.246094 408.517578 C 1303.327637 408.625702 1323.035645 393.549194 1331.599609 365.199219 C 1341.199585 333.699249 1340.399292 301.900787 1326.699219 271.800781 C 1309.199219 233.300812 1263.900757 227.999664 1236.800781 260.599609 C 1220.600708 280.099609 1217.100708 303.500397 1216.800781 333.900391 C 1217.800781 339.800354 1218.600708 351.899231 1221.800781 363.199219 C 1229.800781 392.099152 1249.400024 407.900024 1276 408.5 C 1276.417236 408.509369 1276.832153 408.515869 1277.246094 408.517578 Z"/>
    <path id="path1" fill="#458500" fill-rule="evenodd" stroke="none" d="M 689.238281 494.677734 C 657.967712 494.631256 627.446045 488.065247 599.199219 470.599609 C 541.499268 434.999664 516.000793 363.699951 531.800781 283 C 543.300781 224.100037 575.600403 181.199188 633.900391 165.199219 C 696.000305 147.999237 756.099243 153.200439 804.199219 203.400391 C 830.899231 231.200348 842.799988 265.299652 841.5 303.599609 C 840.5 334.599579 826.499146 349.999634 795.699219 355.099609 C 767.999207 359.699646 740.000366 356.700012 715.900391 357.5 C 690.600342 357.5 669 358.000793 647.5 357.300781 C 634 356.900818 630.799988 361.099182 635 374.199219 C 647.200012 411.8992 686.900452 429.099609 723.900391 411.599609 C 740.800354 403.599609 753.400024 390.100342 767 377.900391 C 784.900024 361.900391 807.700012 359.400391 823.5 371.400391 C 838.5 382.800354 842.100342 404.09964 830.900391 425.599609 C 809.000366 467.699615 770.39917 485.900024 726.199219 492 C 713.824219 493.715637 701.474609 494.695923 689.238281 494.677734 Z M 643.294922 289.644531 C 647.829834 289.636169 653.268372 288.374634 657.599609 288.599609 C 666.299622 289.099609 675.100769 288.699219 683.800781 288.699219 C 698.100769 288.699219 712.399231 288.100342 726.699219 288.900391 C 739.499207 289.700378 741.999634 284.799194 738.099609 273.699219 C 730.999634 253.399261 717.799622 239.499634 696.099609 236.099609 C 673.499634 232.499634 655.299194 240.59964 643.199219 260.099609 C 638.299194 267.999634 630.700806 277.599609 635.300781 286.099609 C 636.788269 288.899597 639.767761 289.651001 643.294922 289.644531 Z"/>
    <path id="path2" fill="#458500" stroke="none" d="M 956.5 182.200012 C 991.099976 145.400024 1041.599976 155.299988 1070.900024 172.700012 C 1094.099976 186.5 1102.400024 209.299988 1093.199951 231.700012 C 1083.900024 254.200012 1062.5 262.799988 1035.699951 254.900024 C 989.900024 241.299988 975.599976 250.799988 967.799988 298.599976 C 961.299988 339.099976 964.599976 379.700012 963.700012 420.299988 C 963.5 429.900024 964.099976 439.599976 962.700012 448.900024 C 958.200012 478 938.299988 494.700012 910.299988 493.799988 C 884.099976 493 865.599976 475.299988 863.400024 446.099976 C 861.700012 423.900024 862.299988 401.5 862.299988 379.200012 C 862.299988 325 862.200012 270.799988 862.799988 216.5 C 863 192.299988 868.5 170 894.200012 160 C 916.200012 151.700012 935.900024 159.099976 956.5 182.200012 Z"/>
    <path id="path3" fill="#458500" stroke="none" d="M 506.200012 267.700012 C 506.200012 321.200012 506.200012 374.700012 506.200012 428.099976 C 506.200012 444.200012 504.799988 460 494.600006 473.5 C 480.399994 492.299988 461 497.100006 439.200012 492.700012 C 416.700012 488.200012 400.899994 469.299988 399.399994 442 C 397.600006 409.400024 398.5 376.599976 398.399994 343.900024 C 398.299988 304.700012 398.399994 304.700012 360.200012 304.700012 C 327.5 304.700012 294.700012 305.299988 262 304.400024 C 248.199997 304 244.399994 308.400024 244.699997 321.900024 C 245.5 359.400024 245.100006 396.900024 244.899994 434.400024 C 244.800003 457.5 236.899994 476.900024 215.699997 488.200012 C 185 504.5 148.300003 488.200012 140.199997 454.5 C 137.600006 443.799988 137.199997 432.400024 137.199997 421.299988 C 137 319.099976 137.100006 217 137.100006 114.799988 C 137.100006 107.599976 137.300003 100.400024 138.300003 93.299988 C 142.600006 59.299988 161.399994 42.5 193.5 43.400024 C 223.600006 44.299988 243.600006 65 244.899994 98 C 245.800003 122.700012 245.100006 147.5 245.100006 172.200012 C 245.100006 211.099976 245.100006 211.099976 283.200012 211.099976 C 315.899994 211.099976 348.700012 210.5 381.399994 211.400024 C 394.799988 211.799988 399.200012 208 398.799988 194.299988 C 397.799988 163.200012 397.700012 132 398.799988 100.900024 C 400 65.200012 419.399994 44.299988 449.799988 43.400024 C 484.799988 42.400024 505.399994 63.200012 506.299988 102.400024 C 507.100006 140.700012 506.5 179 506.5 217.299988 C 506.200012 234.200012 506.200012 250.900024 506.200012 267.700012 Z"/>
    <path id="path4" fill="#458500" stroke="none" d="M 10.100006 325.599976 C 10.100006 288.099976 9.899994 250.599976 10.200012 213.099976 C 10.5 178.5 28.799988 158.099976 59.100006 157.700012 C 90.300003 157.299988 110.399994 178.400024 110.600006 213.599976 C 111 287.799988 111.100006 361.900024 110.600006 436.099976 C 110.399994 473.400024 90.800003 494.299988 58.5 493.899994 C 27.799988 493.5 10.299988 472.5 10.100006 435.599976 C 10 399 10.100006 362.299988 10.100006 325.599976 Z"/>
    <path id="path5" fill="#458501" stroke="none" d="M 59.699997 47.5 C 89.300003 47.099976 110 66.5 110.699997 95.099976 C 111.399994 125.299988 90.899994 146.400024 60.800003 146.599976 C 30.700012 146.900024 10.600006 128 10.100006 99 C 9.5 68.400024 29.399994 47.900024 59.699997 47.5 Z"/>
</svg>

<svg width="1460" height="530" xmlns="http://www.w3.org/2000/svg"><path fill="#458500" fill-rule="evenodd" d="M1298.754 494.58c-25.214-.091-50.575-7.43-72.555-22.28-9.6-6.5-15.399-13.7-24.299 2.9-9.5 17.7-29.1 21.6-48.4 17.8-17.9-3.5-30-15.1-34.1-33-2.4-10.7-3.1-22.1-3.1-33.1-.2-104.6-.2-209.2-.1-313.8 0-8.8 0-17.6 1.1-26.3 3.7-28.5 22.2-44.2 50.2-43.2 25.8.9 43.9 18.3 44.9 46.2 1.3 30.9.4 61.9.4 97.6 38.1-29.2 76.8-34.9 117.4-26.7 58.4 11.8 95.9 54.2 105.5 123.9 8.5 61.7 2.5 121.9-43.2 170.2-24.917 26.421-59.194 39.905-93.746 39.78zm-21.508-86.062c26.082.108 45.79-14.969 54.354-43.319 9.6-31.5 8.8-63.298-4.9-93.398-17.5-38.5-62.8-43.801-89.9-11.201-16.2 19.5-19.7 42.9-20 73.3 1 5.9 1.8 18 5 29.3 8 28.9 27.6 44.7 54.2 45.3.417.01.832.016 1.246.018zM689.238 494.678c-31.27-.047-61.792-6.613-90.039-24.078-57.7-35.6-83.198-106.9-67.398-187.6 11.5-58.9 43.8-101.8 102.1-117.8 62.1-17.2 122.198-12 170.298 38.2 26.7 27.8 38.601 61.9 37.301 100.2-1 31-15 46.4-45.8 51.5-27.7 4.6-55.7 1.6-79.8 2.4-25.3 0-46.9.5-68.4-.2-13.5-.4-16.7 3.8-12.5 16.9 12.2 37.7 51.9 54.9 88.9 37.4 16.9-8 29.5-21.5 43.1-33.7 17.9-16 40.7-18.5 56.5-6.5 15 11.4 18.6 32.7 7.4 54.2-21.9 42.1-60.5 60.3-104.7 66.4-12.376 1.716-24.725 2.696-36.962 2.678zm-45.943-205.033c4.535-.009 9.973-1.27 14.305-1.045 8.7.5 17.5.1 26.2.1 14.3 0 28.6-.6 42.9.2 12.8.8 15.3-4.1 11.4-15.2-7.1-20.3-20.3-34.2-42-37.6-22.6-3.6-40.8 4.5-52.9 24-4.9 7.9-12.5 17.5-7.9 26 1.488 2.8 4.468 3.551 7.995 3.545z"/><path fill="#458500" d="M956.5 182.2c34.6-36.8 85.1-26.9 114.4-9.5 23.2 13.8 31.5 36.6 22.3 59-9.3 22.5-30.7 31.1-57.5 23.2-45.8-13.6-60.1-4.1-67.9 43.7-6.5 40.5-3.2 81.1-4.1 121.7-.2 9.6.4 19.3-1 28.6-4.5 29.1-24.4 45.8-52.4 44.9-26.2-.8-44.7-18.5-46.9-47.7-1.7-22.2-1.1-44.6-1.1-66.9 0-54.2-.1-108.4.5-162.7.2-24.2 5.7-46.5 31.4-56.5 22-8.3 41.7-.9 62.3 22.2zM506.2 267.7v160.4c0 16.1-1.4 31.9-11.6 45.4-14.2 18.8-33.6 23.6-55.4 19.2-22.5-4.5-38.3-23.4-39.8-50.7-1.8-32.6-.9-65.4-1-98.1-.1-39.2 0-39.2-38.2-39.2-32.7 0-65.5.6-98.2-.3-13.8-.4-17.6 4-17.3 17.5.8 37.5.4 75 .2 112.5-.1 23.1-8 42.5-29.2 53.8-30.7 16.3-67.4 0-75.5-33.7-2.6-10.7-3-22.1-3-33.2-.2-102.2-.1-204.3-.1-306.5 0-7.2.2-14.4 1.2-21.5 4.3-34 23.1-50.8 55.2-49.9 30.1.9 50.1 21.6 51.4 54.6.9 24.7.2 49.5.2 74.2 0 38.9 0 38.9 38.1 38.9 32.7 0 65.5-.6 98.2.3 13.4.4 17.8-3.4 17.4-17.1-1-31.1-1.1-62.3 0-93.4 1.2-35.7 20.6-56.6 51-57.5 35-1 55.6 19.8 56.5 59 .8 38.3.2 76.6.2 114.9-.3 16.9-.3 33.6-.3 50.4zM10.1 325.6c0-37.5-.2-75 .1-112.5.3-34.6 18.6-55 48.9-55.4 31.2-.4 51.3 20.7 51.5 55.9.4 74.2.5 148.3 0 222.5-.2 37.3-19.8 58.2-52.1 57.8-30.7-.4-48.2-21.4-48.4-58.3-.1-36.6 0-73.3 0-110z"/><path fill="#458501" d="M59.7 47.5c29.6-.4 50.3 19 51 47.6.7 30.2-19.8 51.3-49.9 51.5-30.1.3-50.2-18.6-50.7-47.6-.6-30.6 19.3-51.1 49.6-51.5z"/></svg>
